brandFactory_export/1.Light/Learndata_1Light.svg

<?xml version="1.0" encoding="UTF-8"?>
<svg width="24px" height="24px" viewBox="0 0 24 24" version="1.1" xmlns="http://www.w3.org/2000/svg" xmlns:xlink="http://www.w3.org/1999/xlink">
    <title>1.Light/Learndata_1Light</title>
    <g id="Symbols" stroke="none" stroke-width="1" fill="none" fill-rule="evenodd">
        <g id="1.Light/Learndata_1Light" fill="#5CB615" fill-rule="nonzero">
            <path d="M20.3327731,22.0067227 C18.9848739,22.4134454 17.2067227,22.6352941 15.3310924,22.6352941 C13.4588235,22.6352941 11.6806723,22.410084 10.3361345,22.0067227 C8.80336134,21.5428571 8.02689076,20.9176471 8.02689076,20.1411765 L8.02689076,20 C8.27563025,19.9630252 8.51092437,19.8621849 8.7092437,19.7109244 C9.76470588,18.8739496 11.2168067,18.4773109 12.2487395,18.292437 C12.5747899,18.2319328 12.8638655,18.0470588 13.0554622,17.7781513 C13.794958,17.8521008 14.5613445,17.8957983 15.3445378,17.8957983 C17.3243697,17.8957983 19.1966387,17.6571429 20.6252101,17.2235294 C21.4319328,16.9781513 22.1142857,16.6352941 22.6386663,16.2319328 L22.6386663,20.1378151 C22.6420168,20.9176471 21.8655462,21.5428571 20.3327731,22.0067227 Z M3.43865546,17.3277311 C3.28403361,17.3008403 3.17310924,17.1663866 3.17310924,17.0117647 L3.17310924,14.5310924 L7.2,16.3361345 C7.51260504,16.4739496 7.86890756,16.4739496 8.18151261,16.3361345 L12.3428571,14.4739496 L12.3428571,17.0151261 C12.3428571,17.1697479 12.2319328,17.3042017 12.0773109,17.3310924 C10.9344538,17.5361345 9.3210084,17.9798319 8.10420168,18.9445378 C7.90252101,19.1058824 7.61344538,19.1058824 7.40840336,18.9445378 C6.19159664,17.9764706 4.57478992,17.5327731 3.43865546,17.3277311 Z M0.981512605,12.3226891 C0.981512605,12.2285714 1.03193277,12.1546218 1.11596639,12.1176471 L7.6,9.21008403 C7.6302521,9.19663866 7.6605042,9.18991597 7.6907563,9.18991597 C7.7210084,9.18991597 7.75462185,9.19663866 7.78487395,9.21008403 L14.2655462,12.1142857 C14.3495798,12.1546218 14.4,12.2285714 14.4,12.3226891 C14.4,12.4168067 14.3495798,12.4907563 14.2655462,12.5277311 L7.78151261,15.4319328 C7.72436975,15.4588235 7.65714286,15.4588235 7.59663866,15.4319328 L1.11596639,12.5277311 C1.03193277,12.4941176 0.981512605,12.4134454 0.981512605,12.3226891 L0.981512605,12.3226891 Z M10.3327731,1.61680672 C11.6739496,1.21344538 13.4487395,0.988235294 15.3310924,0.988235294 C17.2134454,0.988235294 18.9882353,1.21344538 20.3327731,1.61680672 C21.6571429,2.01680672 22.4168067,2.54117647 22.5983193,3.17647059 C22.594958,3.18991597 22.5848739,3.19327731 22.5781513,3.20336134 C22.3563025,3.78487395 21.5831933,4.29243697 20.3428571,4.66890756 C19.005042,5.07226891 17.2268908,5.29747899 15.3445378,5.29747899 C13.4621849,5.29747899 11.687395,5.07226891 10.3462185,4.66890756 C9.07563025,4.28235294 8.29579832,3.76134454 8.09747899,3.15966387 C8.09411765,3.14957983 8.08739496,3.14285714 8.08403361,3.13613445 C8.28235294,2.52773109 9.05546218,2.00672269 10.3327731,1.61680672 Z M8.02689076,4.62521008 C8.5210084,5.01848739 9.19663866,5.3512605 10.0638655,5.61344538 C11.492437,6.04705882 13.3680672,6.28571429 15.3445378,6.28571429 C17.3243697,6.28571429 19.1966387,6.04705882 20.6252101,5.61344538 C21.4789916,5.35462185 22.1478992,5.02857143 22.6420168,4.64537815 L22.6420168,8.98151261 C22.3932773,9.4487395 21.6773109,10.0638655 20.3462185,10.4672269 C19.0084034,10.8705882 17.2302521,11.0957983 15.3478992,11.0957983 C15.0084034,11.0957983 14.6722689,11.0857143 14.3394958,11.0722689 L8.18151261,8.31596639 C8.13109244,8.29579832 8.07731092,8.29915966 8.02689076,8.28235294 L8.02689076,4.62521008 L8.02689076,4.62521008 Z M13.3243697,14.0336134 L14.6689076,13.4319328 C15.1092437,13.2336134 15.3848739,12.810084 15.3848739,12.3226891 C15.3848739,12.2386555 15.3680672,12.1579832 15.3512605,12.0773109 C17.3310924,12.0773109 19.2033613,11.8386555 20.6319328,11.4084034 C21.4420168,11.1630252 22.1243697,10.8235294 22.6453782,10.4201681 L22.6453782,14.8067227 C22.3966387,15.2705882 21.6739496,15.8857143 20.3495798,16.2890756 C19.0117647,16.692437 17.2336134,16.9176471 15.3512605,16.9176471 C14.6588235,16.9176471 13.9831933,16.8806723 13.3243697,16.8201681 L13.3243697,14.0336134 L13.3243697,14.0336134 Z M20.6151261,0.672268908 C19.1831933,0.238655462 17.307563,0 15.3310924,0 C13.3579832,0 11.4823529,0.238655462 10.0504202,0.672268908 C8.38655462,1.17647059 7.40504202,1.92605042 7.12605042,2.89747899 L7.12268908,2.89747899 C7.06890756,3.08571429 7.04537815,3.28067227 7.04537815,3.4789916 L7.04537815,8.37983193 L0.715966387,11.2134454 C0.278991597,11.4084034 -0.00336134454,11.8420168 -2.96856593e-05,12.3226891 C-2.96856593e-05,12.810084 0.275630252,13.2336134 0.715966387,13.4319328 L2.18823529,14.0907563 L2.18823529,17.0084034 C2.18823529,17.6436975 2.63865546,18.1848739 3.2605042,18.2957983 C4.29243697,18.4806723 5.74117647,18.8773109 6.79663866,19.7142857 C6.87394958,19.7747899 6.95798319,19.805042 7.04201681,19.8487395 L7.04201681,20.1445378 C7.04201681,21.405042 8.05042017,22.3495798 10.0470588,22.9546218 C11.4857143,23.3848739 13.3613445,23.6235294 15.3277311,23.6235294 C17.297479,23.6235294 19.1731092,23.3848739 20.6151261,22.9512605 C22.6084034,22.3462185 23.6201764,21.4016807 23.6201764,20.1445378 L23.6201764,3.4789916 C23.6235294,2.22184874 22.6117647,1.27731092 20.6151261,0.672268908 Z" id="Learndata_1Light"></path>
        </g>
    </g>
</svg>

<svg width="24" height="24" viewBox="0 0 24 24" xmlns="http://www.w3.org/2000/svg"><path d="M20.333 22.007c-1.348.406-3.126.628-5.002.628-1.872 0-3.65-.225-4.995-.628-1.533-.464-2.31-1.09-2.31-1.866V20c.25-.037.485-.138.683-.29 1.056-.836 2.508-1.233 3.54-1.418.326-.06.615-.245.806-.514.74.074 1.506.118 2.29.118 1.98 0 3.852-.239 5.28-.672.807-.246 1.49-.589 2.014-.992v3.906c.003.78-.773 1.405-2.306 1.869zm-16.894-4.68a.32.32 0 01-.266-.315v-2.48L7.2 16.335c.313.138.669.138.982 0l4.16-1.862v2.541a.32.32 0 01-.265.316c-1.143.205-2.756.649-3.973 1.614a.56.56 0 01-.696 0c-1.216-.969-2.833-1.412-3.97-1.617zM.982 12.324c0-.094.05-.168.134-.205L7.6 9.21a.222.222 0 01.185 0l6.48 2.904c.085.04.135.115.135.209 0 .094-.05.168-.134.205l-6.484 2.904a.222.222 0 01-.185 0l-6.481-2.904a.216.216 0 01-.134-.205zm9.35-10.706c1.342-.404 3.117-.629 5-.629 1.881 0 3.656.225 5 .629 1.325.4 2.085.924 2.266 1.56-.003.013-.013.016-.02.026-.222.582-.995 1.09-2.235 1.466-1.338.403-3.116.628-4.998.628-1.883 0-3.658-.225-4.999-.628-1.27-.387-2.05-.908-2.249-1.51-.003-.01-.01-.016-.013-.023.198-.608.971-1.13 2.249-1.52zM8.028 4.625c.494.393 1.17.726 2.037.988 1.428.434 3.304.673 5.28.673 1.98 0 3.853-.239 5.281-.673.854-.258 1.523-.584 2.017-.968v4.337c-.249.467-.965 1.082-2.296 1.485-1.338.404-3.116.629-4.998.629-.34 0-.676-.01-1.009-.024L8.182 8.316c-.05-.02-.105-.017-.155-.034V4.625zm5.297 9.409l1.345-.602c.44-.198.716-.622.716-1.11 0-.083-.017-.164-.034-.245 1.98 0 3.852-.238 5.28-.669.811-.245 1.493-.584 2.014-.988v4.387c-.248.464-.971 1.079-2.295 1.482-1.338.403-3.116.629-4.999.629a22.13 22.13 0 01-2.027-.098v-2.786zM20.615.672C19.183.24 17.308 0 15.331 0c-1.973 0-3.849.239-5.28.672-1.664.504-2.646 1.254-2.925 2.225h-.003a2.11 2.11 0 00-.078.582v4.9L.716 11.214c-.437.195-.72.629-.716 1.11 0 .487.276.91.716 1.109l1.472.659v2.917c0 .636.45 1.177 1.073 1.288 1.031.185 2.48.581 3.536 1.418.077.06.161.091.245.135v.296c0 1.26 1.008 2.205 3.005 2.81 1.439.43 3.314.669 5.28.669 1.97 0 3.846-.24 5.288-.673 1.993-.605 3.005-1.55 3.005-2.806V3.479c.004-1.257-1.008-2.202-3.005-2.807z" fill="#5CB615" fill-rule="nonzero"/></svg>
